X:3230
T:Kemmies awa'. CJF.103
T:Hexham Races,aka. CJF.103
O:england
M:6/8
L:1/8
Q:100
S: C.J.Fox MS, 1829/33, Beverley,E.Yorks.
R:Jig
A:East Yorkshire
B:Kidson Coll.Mitchell Lib.M1805
K:G
B/A/|"$"(G>A).B .g.d.B|d2d(d2e|G>AB .g.d.B|{A}A2AA2B|\
G>AB .g.d.B|d>efg2f/e/|{e}d>cB {d}c>BA|G2GG2h||f|
(g2d) (ed).B|d>edd2f|g2d (ed)B|A2AA2f|(g2d) (ed)B|defg2f/e/|d>cB c>BA|G
2
GG2"$"||
K:D
d|c>de A>Bc|d>faa2b|(c'>ba) (g>fe)|(f>ga)e2d|(c>de) (A>Bc)|(d>fa)a2d'|(
c
'>ba) (g>fe)|dec e" $"c||
K:G


